X: 1
T:Crawford's Reel
T:Lomanach Cross
M:4/4
L:1/4
S:Patsy Hanley
Z:Dennis J. Gormley <GORMLEY@shrsys.hslc.ORG>
R:Reel
N:Ceol Rince V.2 *148 "Lomanach Cross", Denis Murphy's version.
D:Tribute to Packie Duignan Tape (Patsy Hanley plays the tune AABAABA)
D:Matt Molloy recorded it on "Stony Steps" as "SeanMaguire's"
K:G
dB|:~G2GA ~B2BA|GBdB cAAB|AGFG A2AB|cBAG FGAF|
   ~G2GA ~B2BA|GBdB c2Bc|dBBA BGAG|FAdc BGG2:|
  |dg~g2 b2af|defg agfB|dg~g2 b2ag|fdcA BG~G2|
   dg~g2 bgaf|defg agfB|dg~g2 dg~g2|a2agfdca |
